docs/science/organic/Ph_1.svg

<svg xmlns="http://www.w3.org/2000/svg" xmlns:xlink="http://www.w3.org/1999/xlink" width="104" height="93" x="0" y="0" version="1.1" viewBox="514 501 104 93"><g><g><rect width="104" height="93" x="514" y="501" fill="none" stroke="none"/><rect width="104" height="93" x="514" y="501" fill="none" fill-opacity="1" stroke="none"/><g><g><path fill="none" stroke="#111" stroke-linecap="round" stroke-linejoin="round" stroke-miterlimit="10" stroke-width="1.46" d="M 545.716 581.784 L 525.716 547.144" paint-order="fill stroke markers" transform="scale(1,1)"/></g><g><path fill="none" stroke="#111" stroke-linecap="round" stroke-linejoin="round" stroke-miterlimit="10" stroke-width="1.46" d="M 531.2585232335442 547.1438614428217 L 548.4874006396298 517.3000000000003 M 525.716 547.144 L 545.716 512.5" paint-order="fill stroke markers" transform="scale(1,1)"/></g><g><path fill="none" stroke="#111" stroke-linecap="round" stroke-linejoin="round" stroke-miterlimit="10" stroke-width="1.46" d="M 545.716 512.5 L 585.716 512.5" paint-order="fill stroke markers" transform="scale(1,1)"/></g><g><path fill="none" stroke="#111" stroke-linecap="round" stroke-linejoin="round" stroke-miterlimit="10" stroke-width="1.46" d="M 582.9445993603701 517.3000000000002 L 600.1734767664558 547.1438614428217 M 585.716 512.5 L 605.716 547.144" paint-order="fill stroke markers" transform="scale(1,1)"/></g><g><path fill="none" stroke="#111" stroke-linecap="round" stroke-linejoin="round" stroke-miterlimit="10" stroke-width="1.46" d="M 605.716 547.144 L 585.716 581.784" paint-order="fill stroke markers" transform="scale(1,1)"/></g><g><path fill="none" stroke="#111" stroke-linecap="round" stroke-linejoin="round" stroke-miterlimit="10" stroke-width="1.46" d="M 582.9447593546898 576.984 L 548.4872406453102 576.984 M 585.716 581.784 L 545.716 581.784" paint-order="fill stroke markers" transform="scale(1,1)"/></g></g></g></g></svg>

<svg xmlns="http://www.w3.org/2000/svg" viewBox="514 501 104 93" xmlns:xlink="http://www.w3.org/1999/xlink"><defs><path fill="none" d="M514 501h104v93H514z" id="a"/></defs><use href="#a"/><use href="#a"/><path fill="none" stroke="#111" stroke-linecap="round" stroke-linejoin="round" stroke-miterlimit="10" stroke-width="1.46" d="m545.716 581.784-20-34.64m5.543 0 17.228-29.844m-22.771 29.844 20-34.644m0 0h40m-2.771 4.8 17.228 29.844M585.716 512.5l20 34.644m0 0-20 34.64m-2.771-4.8h-34.458m37.229 4.8h-40" paint-order="fill stroke markers"/></svg>
